X: 64
T:Dancing Tailor
% Nottingham Music Database
S:Alastair A, via EF
M:6/8
K:D
P:A
A/2G/2|"D"FGF "G"GAB|"A7"ABc "D"dcd|"G"Bcd "D/f+"efd|"Em"cdB "A7"ABG|
"D"FGF "G"GAB|"A7"ABc "D"dcd|"G"Bcd "D"Adf|"A7"edc "D"d2:|
P:B
A|"D"ded fed|"Em"efd "A7"cBA|"D"ded fed|"G"Bcd "A7"efg|
"D"afa fed|"Em"ged "A"cBA|"G"Bcd "D"Aaf|"A7"edc "D"d2:|<end>
<start>
